X:305
T:Smash the Windows
R:Jig
O:Ireland
M:6/8
K:D
DED F2A|d2f ecA|G2B F2A|E2F GFE|
DED F2A|d2f ecA|Bgf edc|d3 d2::a|
a2f d2f|A2a agf|g2e c2e|A2g gfe|
f2d g2e|a2f b2a|gfe ABc|d3 f2a|
agf fed|Adf agf|gfe ecA|Ace gfe|
fed gfe|agf b2a|gfe ABc|d3 d2||
